; G-Code generated by Simplify3D(R) Version 3.0.2
; Dec 1, 2015 at 11:47:00 AM
; Settings Summary
;   processName,Process1
;   applyToModels,24_Leg_Horn Mount Long,25_Leg_Bearing Mount Long,26_Leg_Horn Mount Double,27_Leg_Bearing Mount Double,28_Leg_Cross Support for Double,29_Leg_Foot,40_Misc_Servo Backplate x1,40_Misc_Servo Backplate x2,40_Misc_Servo Backplate x3,41_Misc_Servo Mount x1,41_Misc_Servo Mount x2
;   profileName,Kossel Mini (modified)
;   profileVersion,2015-11-22 16:57:16
;   baseProfile,
;   printMaterial,PLA
;   printQuality,Medium
;   printExtruders,
;   extruderName,Primary Extruder
;   extruderToolheadNumber,0
;   extruderDiameter,0.4
;   extruderAutoWidth,0
;   extruderWidth,0.5
;   extrusionMultiplier,1
;   extruderUseRetract,1
;   extruderRetractionDistance,4.5
;   extruderExtraRestartDistance,0
;   extruderRetractionZLift,0.1
;   extruderRetractionSpeed,3600
;   extruderUseCoasting,0
;   extruderCoastingDistance,1
;   extruderUseWipe,0
;   extruderWipeDistance,5
;   primaryExtruder,0
;   layerHeight,0.25
;   topSolidLayers,3
;   bottomSolidLayers,3
;   perimeterOutlines,2
;   printPerimetersInsideOut,1
;   startPointOption,2
;   startPointOriginX,0
;   startPointOriginY,0
;   startPointOriginZ,300
;   sequentialIslands,0
;   spiralVaseMode,0
;   firstLayerHeightPercentage,90
;   firstLayerWidthPercentage,100
;   firstLayerUnderspeed,0.5
;   useRaft,0
;   raftExtruder,0
;   raftLayers,3
;   raftOffset,3
;   raftSeparationDistance,0.14
;   raftInfill,85
;   disableRaftBaseLayers,0
;   useSkirt,1
;   skirtExtruder,0
;   skirtLayers,1
;   skirtOutlines,2
;   skirtOffset,4
;   usePrimePillar,0
;   primePillarExtruder,999
;   primePillarWidth,12
;   primePillarLocation,7
;   primePillarSpeedMultiplier,1
;   useOozeShield,0
;   oozeShieldExtruder,999
;   oozeShieldOffset,2
;   oozeShieldOutlines,1
;   oozeShieldSidewallShape,1
;   oozeShieldSidewallAngle,30
;   oozeShieldSpeedMultiplier,1
;   infillExtruder,0
;   internalInfillPattern,Rectilinear
;   externalInfillPattern,Rectilinear
;   infillPercentage,20
;   outlineOverlapPercentage,30
;   infillExtrusionWidthPercentage,150
;   minInfillLength,5
;   infillLayerInterval,1
;   infillAngles,45,-45
;   overlapInfillAngles,0
;   generateSupport,0
;   supportExtruder,0
;   supportInfillPercentage,30
;   supportExtraInflation,0
;   denseSupportLayers,0
;   denseSupportInfillPercentage,70
;   supportLayerInterval,1
;   supportHorizontalPartOffset,0.3
;   supportUpperSeparationLayers,1
;   supportLowerSeparationLayers,1
;   supportType,0
;   supportGridSpacing,4
;   maxOverhangAngle,45
;   supportAngles,0
;   temperatureName,Primary Extruder,Heated Bed
;   temperatureNumber,0,1
;   temperatureSetpointCount,1,1
;   temperatureSetpointLayers,1,1
;   temperatureSetpointTemperatures,190,60
;   temperatureStabilizeAtStartup,1,0
;   temperatureHeatedBed,0,1
;   temperatureRelayBetweenLayers,0,0
;   temperatureRelayBetweenLoops,0,0
;   fanLayers,1,2
;   fanSpeeds,0,100
;   blipFanToFullPower,1
;   adjustSpeedForCooling,1
;   minSpeedLayerTime,15
;   minCoolingSpeedSlowdown,20
;   increaseFanForCooling,0
;   minFanLayerTime,60
;   maxCoolingFanSpeed,100
;   increaseFanForBridging,0
;   bridgingFanSpeed,100
;   use5D,1
;   relativeEdistances,0
;   allowEaxisZeroing,1
;   independentExtruderAxes,0
;   includeM10123,0
;   stickySupport,1
;   applyToolheadOffsets,0
;   gcodeXoffset,0
;   gcodeYoffset,0
;   gcodeZoffset,0
;   overrideMachineDefinition,1
;   machineTypeOverride,1
;   strokeXoverride,120
;   strokeYoverride,120
;   strokeZoverride,240
;   originOffsetXoverride,60
;   originOffsetYoverride,60
;   originOffsetZoverride,0
;   homeXdirOverride,0
;   homeYdirOverride,0
;   homeZdirOverride,1
;   flipXoverride,1
;   flipYoverride,-1
;   flipZoverride,1
;   toolheadOffsets,0,0|0,0|0,0|0,0|0,0|0,0
;   overrideFirmwareConfiguration,1
;   firmwareTypeOverride,RepRap (Marlin/Repetier/Sprinter)
;   GPXconfigOverride,r2
;   baudRateOverride,250000
;   overridePrinterModels,1
;   printerModelsOverride
;   startingGcode,G28 ; home all axes
;   layerChangeGcode,
;   retractionGcode,
;   toolChangeGcode,
;   endingGcode,M104 S0 ; turn off extruder,M140 S0 ; turn off bed,M106 S0 ; turn off fan,G28 ; home axes,M84 ; disable motors
;   createX3G,0
;   celebration,0
;   celebrationSong,Random Song
;   createMB5G,0
;   postProcessing,
;   defaultSpeed,2400
;   outlineUnderspeed,0.4
;   solidInfillUnderspeed,0.8
;   supportUnderspeed,0.8
;   rapidXYspeed,6000
;   rapidZspeed,1200
;   minBridgingArea,50
;   bridgingExtraInflation,0
;   bridgingExtrusionMultiplier,0.95
;   bridgingSpeedMultiplier,0.7
;   filamentDiameter,1.74
;   filamentPricePerKg,20
;   filamentDensity,1.25
;   useMinPrintHeight,0
;   minPrintHeight,0
;   useMaxPrintHeight,0
;   maxPrintHeight,0
;   useDiaphragm,0
;   diaphragmLayerInterval,20
;   robustSlicing,1
;   mergeAllIntoSolid,0
;   onlyRetractWhenCrossingOutline,1
;   retractBetweenLayers,1
;   useRetractionMinTravel,0
;   retractionMinTravel,3
;   retractWhileWiping,0
;   onlyWipeOutlines,1
;   avoidCrossingOutline,1
;   maxMovementDetourFactor,3
;   toolChangeRetractionDistance,12
;   toolChangeExtraRestartDistance,-0.5
;   toolChangeRetractionSpeed,600
;   allowThinWallGapFill,1
;   thinWallAllowedOverlapPercentage,30
;   horizontalSizeCompensation,0
G90
M82
M106 S0
M140 S60
M104 S190 T0
M109 S190 T0
G28 ; home all axes
G92 E0
G1 E-4.5000 F3600
G1 Z0.325 F1200
; layer 1, Z = 0.225
T0
; tool H0.250 W0.500
; skirt
G1 X-27.160 Y27.018 F6000
G1 Z0.225 F1200
G1 E0.0000 F1080
G92 E0
G1 X-46.325 Y27.018 E1.0075 F1200
G1 X-46.601 Y26.904 E1.0232
G1 X-49.155 Y24.350 E1.2131
G1 X-49.269 Y24.074 E1.2287
G1 X-49.269 Y9.302 E2.0053
G1 X-54.457 Y8.408 E2.2820
G1 X-54.688 Y8.276 E2.2960
G1 X-56.740 Y5.839 E2.4634
G1 X-56.831 Y5.590 E2.4774
G1 X-56.831 Y-1.595 E2.8551
G1 X-56.740 Y-1.844 E2.8691
G1 X-54.688 Y-4.281 E3.0365
G1 X-54.457 Y-4.413 E3.0505
G1 X-48.368 Y-5.463 E3.3753
G1 X-48.368 Y-21.355 E4.2107
G1 X-48.253 Y-21.630 E4.2264
G1 X-46.695 Y-23.189 E4.3423
G1 X-46.695 Y-36.907 E5.0634
G1 X-46.581 Y-37.183 E5.0791
G1 X-44.027 Y-39.737 E5.2690
G1 X-43.751 Y-39.851 E5.2847
G1 X-11.193 Y-39.851 E6.9962
G1 X-11.193 Y-41.411 E7.0782
G1 X-11.079 Y-41.687 E7.0939
G1 X-8.525 Y-44.241 E7.2838
G1 X-8.249 Y-44.355 E7.2995
G1 X9.363 Y-44.355 E8.2253
G1 X9.639 Y-44.241 E8.2410
G1 X12.193 Y-41.687 E8.4309
G1 X12.307 Y-41.411 E8.4465
G1 X12.307 Y-40.068 E8.5171
G1 X45.170 Y-40.068 E10.2447
G1 X45.446 Y-39.954 E10.2604
G1 X48.000 Y-37.400 E10.4503
G1 X48.114 Y-37.124 E10.4660
G1 X48.114 Y-22.962 E11.2104
G1 X49.272 Y-21.804 E11.2965
G1 X49.387 Y-21.529 E11.3122
G1 X49.387 Y-8.108 E12.0177
G1 X51.262 Y-6.232 E12.1571
G1 X51.376 Y-5.957 E12.1728
G1 X51.376 Y9.656 E12.9936
G1 X51.262 Y9.932 E13.0092
G1 X49.139 Y12.054 E13.1670
G1 X49.209 Y12.223 E13.1767
G1 X49.215 Y12.241 E13.1777
G1 X49.486 Y12.997 E13.2199
G1 X49.492 Y13.015 E13.2209
G1 X49.554 Y13.220 E13.2322
G1 X49.559 Y13.238 E13.2331
G1 X49.754 Y14.017 E13.2754
G1 X49.758 Y14.035 E13.2763
G1 X49.800 Y14.246 E13.2876
G1 X49.803 Y14.264 E13.2886
G1 X49.921 Y15.059 E13.3308
G1 X49.924 Y15.077 E13.3318
G1 X49.945 Y15.291 E13.3431
G1 X49.946 Y15.309 E13.3441
G1 X49.985 Y16.112 E13.3863
G1 X49.986 Y16.130 E13.3873
G1 X49.986 Y16.345 E13.3986
G1 X49.985 Y16.364 E13.3995
G1 X49.946 Y17.166 E13.4418
G1 X49.945 Y17.185 E13.4428
G1 X49.924 Y17.399 E13.4540
G1 X49.921 Y17.417 E13.4550
G1 X49.803 Y18.212 E13.4973
G1 X49.800 Y18.230 E13.4982
G1 X49.758 Y18.441 E13.5095
G1 X49.754 Y18.459 E13.5105
G1 X49.559 Y19.238 E13.5527
G1 X49.554 Y19.256 E13.5537
G1 X49.492 Y19.461 E13.5650
G1 X49.486 Y19.478 E13.5659
G1 X49.215 Y20.235 E13.6082
G1 X49.209 Y20.252 E13.6091
G1 X49.126 Y20.451 E13.6205
G1 X49.119 Y20.468 E13.6214
G1 X48.775 Y21.194 E13.6637
G1 X48.767 Y21.211 E13.6646
G1 X48.666 Y21.400 E13.6759
G1 X48.657 Y21.416 E13.6769
G1 X48.244 Y22.105 E13.7191
G1 X48.234 Y22.121 E13.7201
G1 X48.115 Y22.299 E13.7314
G1 X48.104 Y22.314 E13.7323
G1 X47.625 Y22.960 E13.7746
G1 X47.614 Y22.974 E13.7756
G1 X47.478 Y23.141 E13.7869
G1 X47.465 Y23.155 E13.7878
G1 X46.926 Y23.750 E13.8301
G1 X46.913 Y23.763 E13.8311
G1 X46.761 Y23.915 E13.8423
G1 X46.748 Y23.928 E13.8433
G1 X46.153 Y24.467 E13.8855
G1 X46.139 Y24.479 E13.8865
G1 X45.973 Y24.616 E13.8978
G1 X45.958 Y24.627 E13.8988
G1 X45.312 Y25.106 E13.9410
G1 X45.297 Y25.117 E13.9420
G1 X45.119 Y25.236 E13.9533
G1 X45.103 Y25.246 E13.9542
G1 X44.414 Y25.659 E13.9965
G1 X44.398 Y25.668 E13.9974
G1 X44.209 Y25.769 E14.0087
G1 X44.192 Y25.777 E14.0097
G1 X43.466 Y26.121 E14.0520
G1 X43.449 Y26.128 E14.0529
G1 X43.250 Y26.211 E14.0642
G1 X43.233 Y26.217 E14.0652
G1 X42.477 Y26.488 E14.1074
G1 X42.459 Y26.494 E14.1084
G1 X42.254 Y26.556 E14.1197
G1 X42.236 Y26.561 E14.1207
G1 X41.456 Y26.756 E14.1629
G1 X41.438 Y26.760 E14.1639
G1 X41.228 Y26.802 E14.1752
G1 X41.210 Y26.805 E14.1761
G1 X40.415 Y26.923 E14.2184
G1 X40.396 Y26.926 E14.2193
G1 X40.183 Y26.947 E14.2306
G1 X40.164 Y26.948 E14.2316
G1 X39.415 Y26.985 E14.2710
G1 X39.406 Y26.985 E14.2715
G1 X39.299 Y26.988 E14.2771
G1 X39.290 Y26.988 E14.2776
G1 X32.645 Y26.988 E14.6269
G1 X32.765 Y27.466 E14.6529
G1 X32.769 Y27.485 E14.6538
G1 X32.811 Y27.695 E14.6651
G1 X32.814 Y27.713 E14.6661
G1 X32.932 Y28.508 E14.7084
G1 X32.934 Y28.527 E14.7093
G1 X32.955 Y28.740 E14.7206
G1 X32.957 Y28.759 E14.7216
G1 X32.996 Y29.561 E14.7638
G1 X32.996 Y29.580 E14.7648
G1 X32.996 Y29.795 E14.7761
G1 X32.996 Y29.813 E14.7771
G1 X32.957 Y30.616 E14.8193
G1 X32.955 Y30.634 E14.8203
G1 X32.934 Y30.848 E14.8315
G1 X32.932 Y30.866 E14.8325
G1 X32.814 Y31.661 E14.8748
G1 X32.811 Y31.679 E14.8757
G1 X32.769 Y31.890 E14.8870
G1 X32.765 Y31.908 E14.8880
G1 X32.570 Y32.687 E14.9302
G1 X32.565 Y32.705 E14.9312
G1 X32.502 Y32.910 E14.9425
G1 X32.497 Y32.928 E14.9434
G1 X32.226 Y33.684 E14.9857
G1 X32.219 Y33.702 E14.9867
G1 X32.137 Y33.900 E14.9980
G1 X32.130 Y33.917 E14.9989
G1 X31.786 Y34.644 E15.0412
G1 X31.778 Y34.660 E15.0422
G1 X31.676 Y34.850 E15.0534
G1 X31.667 Y34.866 E15.0544
G1 X31.254 Y35.555 E15.0966
G1 X31.244 Y35.570 E15.0976
G1 X31.125 Y35.749 E15.1089
G1 X31.115 Y35.764 E15.1099
G1 X30.636 Y36.409 E15.1521
G1 X30.625 Y36.424 E15.1531
G1 X30.488 Y36.590 E15.1644
G1 X30.476 Y36.604 E15.1654
G1 X29.936 Y37.200 E15.2076
G1 X29.924 Y37.213 E15.2086
G1 X29.772 Y37.364 E15.2198
G1 X29.759 Y37.377 E15.2208
G1 X29.163 Y37.917 E15.2630
G1 X29.149 Y37.929 E15.2640
G1 X28.983 Y38.065 E15.2753
G1 X28.969 Y38.077 E15.2763
G1 X28.323 Y38.555 E15.3185
G1 X28.308 Y38.566 E15.3195
G1 X28.130 Y38.685 E15.3308
G1 X28.114 Y38.695 E15.3318
G1 X27.425 Y39.108 E15.3740
G1 X27.409 Y39.117 E15.3750
G1 X27.219 Y39.218 E15.3863
G1 X27.203 Y39.227 E15.3872
G1 X26.476 Y39.570 E15.4295
G1 X26.459 Y39.578 E15.4304
G1 X26.261 Y39.660 E15.4417
G1 X26.244 Y39.667 E15.4427
G1 X25.487 Y39.937 E15.4850
G1 X25.470 Y39.943 E15.4859
G1 X25.264 Y40.005 E15.4972
G1 X25.246 Y40.010 E15.4982
G1 X24.467 Y40.206 E15.5404
G1 X24.449 Y40.210 E15.5414
G1 X24.238 Y40.252 E15.5527
G1 X24.220 Y40.255 E15.5536
G1 X23.425 Y40.373 E15.5959
G1 X23.407 Y40.375 E15.5969
G1 X23.193 Y40.396 E15.6081
G1 X23.175 Y40.397 E15.6091
G1 X22.426 Y40.434 E15.6485
G1 X22.417 Y40.434 E15.6490
G1 X22.309 Y40.437 E15.6547
G1 X22.300 Y40.437 E15.6552
G1 X-16.824 Y40.436 E17.7118
G1 X-16.833 Y40.436 E17.7123
G1 X-16.940 Y40.434 E17.7179
G1 X-16.950 Y40.433 E17.7184
G1 X-17.682 Y40.397 E17.7570
G1 X-17.700 Y40.396 E17.7579
G1 X-17.914 Y40.375 E17.7692
G1 X-17.932 Y40.373 E17.7702
G1 X-18.727 Y40.255 E17.8124
G1 X-18.745 Y40.252 E17.8134
G1 X-18.956 Y40.210 E17.8247
G1 X-18.974 Y40.206 E17.8257
G1 X-19.754 Y40.010 E17.8679
G1 X-19.771 Y40.005 E17.8689
G1 X-19.977 Y39.943 E17.8802
G1 X-19.994 Y39.937 E17.8811
G1 X-20.751 Y39.667 E17.9234
G1 X-20.768 Y39.660 E17.9244
G1 X-20.967 Y39.578 E17.9356
G1 X-20.983 Y39.570 E17.9366
G1 X-21.710 Y39.227 E17.9789
G1 X-21.726 Y39.218 E17.9798
G1 X-21.916 Y39.117 E17.9911
G1 X-21.932 Y39.108 E17.9921
G1 X-22.621 Y38.695 E18.0343
G1 X-22.637 Y38.685 E18.0353
G1 X-22.815 Y38.566 E18.0466
G1 X-22.830 Y38.555 E18.0476
G1 X-23.476 Y38.077 E18.0898
G1 X-23.490 Y38.065 E18.0908
G1 X-23.656 Y37.929 E18.1021
G1 X-23.670 Y37.917 E18.1030
G1 X-24.266 Y37.377 E18.1453
G1 X-24.279 Y37.365 E18.1462
G1 X-24.431 Y37.213 E18.1575
G1 X-24.444 Y37.199 E18.1585
G1 X-24.983 Y36.604 E18.2007
G1 X-24.995 Y36.590 E18.2017
G1 X-25.132 Y36.424 E18.2130
G1 X-25.143 Y36.409 E18.2140
G1 X-25.622 Y35.764 E18.2562
G1 X-25.632 Y35.749 E18.2572
G1 X-25.751 Y35.570 E18.2685
G1 X-25.761 Y35.555 E18.2694
G1 X-26.174 Y34.866 E18.3117
G1 X-26.184 Y34.850 E18.3127
G1 X-26.285 Y34.660 E18.3239
G1 X-26.293 Y34.644 E18.3249
G1 X-26.637 Y33.917 E18.3672
G1 X-26.644 Y33.900 E18.3681
G1 X-26.726 Y33.702 E18.3794
G1 X-26.733 Y33.685 E18.3804
G1 X-27.004 Y32.928 E18.4226
G1 X-27.009 Y32.910 E18.4236
G1 X-27.072 Y32.705 E18.4349
G1 X-27.077 Y32.687 E18.4359
G1 X-27.272 Y31.908 E18.4781
G1 X-27.276 Y31.890 E18.4791
G1 X-27.318 Y31.679 E18.4904
G1 X-27.321 Y31.661 E18.4913
G1 X-27.439 Y30.866 E18.5336
G1 X-27.441 Y30.848 E18.5345
G1 X-27.462 Y30.634 E18.5458
G1 X-27.464 Y30.616 E18.5468
G1 X-27.503 Y29.813 E18.5890
G1 X-27.504 Y29.795 E18.5900
G1 X-27.504 Y29.580 E18.6013
G1 X-27.503 Y29.561 E18.6023
G1 X-27.464 Y28.759 E18.6445
G1 X-27.462 Y28.740 E18.6455
G1 X-27.441 Y28.527 E18.6568
G1 X-27.439 Y28.508 E18.6577
G1 X-27.321 Y27.713 E18.7000
G1 X-27.318 Y27.695 E18.7010
G1 X-27.276 Y27.485 E18.7122
G1 X-27.272 Y27.467 E18.7132
G1 X-27.160 Y27.018 E18.7375
G1 X-26.593 Y26.815 F6000
G92 E0
G1 X-26.592 Y26.809 E0.0003 F1200
G1 X-26.533 Y26.615 E0.0110
G1 X-26.531 Y26.609 E0.0113
G1 X-26.498 Y26.518 E0.0164
G1 X-46.226 Y26.518 E1.0534
G1 X-46.318 Y26.480 E1.0586
G1 X-48.731 Y24.067 E1.2380
G1 X-48.769 Y23.975 E1.2433
G1 X-48.769 Y8.881 E2.0367
G1 X-54.285 Y7.930 E2.3310
G1 X-54.362 Y7.886 E2.3356
G1 X-56.300 Y5.585 E2.4938
G1 X-56.331 Y5.502 E2.4984
G1 X-56.331 Y-1.507 E2.8669
G1 X-56.300 Y-1.590 E2.8715
G1 X-54.362 Y-3.891 E3.0297
G1 X-54.285 Y-3.935 E3.0343
G1 X-47.868 Y-5.042 E3.3767
G1 X-47.868 Y-21.255 E4.2290
G1 X-47.830 Y-21.347 E4.2342
G1 X-46.195 Y-22.982 E4.3557
G1 X-46.195 Y-36.808 E5.0825
G1 X-46.157 Y-36.899 E5.0878
G1 X-43.743 Y-39.313 E5.2672
G1 X-43.651 Y-39.351 E5.2724
G1 X-10.693 Y-39.351 E7.0050
G1 X-10.693 Y-41.312 E7.1081
G1 X-10.655 Y-41.404 E7.1133
G1 X-8.241 Y-43.817 E7.2927
G1 X-8.149 Y-43.855 E7.2980
G1 X9.264 Y-43.855 E8.2133
G1 X9.356 Y-43.817 E8.2186
G1 X11.769 Y-41.404 E8.3980
G1 X11.807 Y-41.312 E8.4032
G1 X11.807 Y-39.568 E8.4949
G1 X45.071 Y-39.568 E10.2435
G1 X45.163 Y-39.530 E10.2487
G1 X47.576 Y-37.117 E10.4281
G1 X47.614 Y-37.025 E10.4334
G1 X47.614 Y-22.755 E11.1835
G1 X48.849 Y-21.521 E11.2752
G1 X48.887 Y-21.429 E11.2805
G1 X48.887 Y-7.901 E11.9916
G1 X50.838 Y-5.949 E12.1367
G1 X50.876 Y-5.857 E12.1419
G1 X50.876 Y9.557 E12.9522
G1 X50.838 Y9.649 E12.9575
G1 X48.537 Y11.948 E13.1284
G1 X48.664 Y12.216 E13.1440
G1 X48.667 Y12.222 E13.1444
G1 X48.745 Y12.409 E13.1550
G1 X48.747 Y12.415 E13.1554
G1 X49.013 Y13.160 E13.1970
G1 X49.015 Y13.166 E13.1973
G1 X49.074 Y13.359 E13.2079
G1 X49.076 Y13.365 E13.2082
G1 X49.268 Y14.133 E13.2498
G1 X49.269 Y14.139 E13.2501
G1 X49.309 Y14.337 E13.2608
G1 X49.310 Y14.343 E13.2611
G1 X49.426 Y15.126 E13.3027
G1 X49.427 Y15.132 E13.3030
G1 X49.446 Y15.334 E13.3137
G1 X49.447 Y15.340 E13.3140
G1 X49.486 Y16.130 E13.3556
G1 X49.486 Y16.137 E13.3559
G1 X49.486 Y16.339 E13.3666
G1 X49.486 Y16.345 E13.3669
G1 X49.447 Y17.136 E13.4085
G1 X49.446 Y17.142 E13.4088
G1 X49.427 Y17.343 E13.4195
G1 X49.426 Y17.349 E13.4198
G1 X49.310 Y18.132 E13.4614
G1 X49.309 Y18.138 E13.4617
G1 X49.269 Y18.337 E13.4724
G1 X49.268 Y18.343 E13.4727
G1 X49.076 Y19.110 E13.5143
G1 X49.074 Y19.116 E13.5146
G1 X49.015 Y19.310 E13.5252
G1 X49.013 Y19.316 E13.5256
G1 X48.747 Y20.061 E13.5672
G1 X48.745 Y20.067 E13.5675
G1 X48.667 Y20.254 E13.5782
G1 X48.664 Y20.260 E13.5785
G1 X48.326 Y20.975 E13.6201
G1 X48.323 Y20.981 E13.6204
G1 X48.228 Y21.159 E13.6310
G1 X48.225 Y21.164 E13.6314
